; generated by PrusaSlicer 2.9.2 on 2025-10-23 at 23:10:33 UTC

; 

; external perimeters extrusion width = 0.45mm
; perimeters extrusion width = 0.45mm
; infill extrusion width = 0.45mm
; solid infill extrusion width = 0.45mm
; top infill extrusion width = 0.40mm
; support material extrusion width = 0.40mm
; first layer extrusion width = 0.70mm

; external perimeters extrusion width = 0.45mm
; perimeters extrusion width = 0.45mm
; infill extrusion width = 0.45mm
; solid infill extrusion width = 0.45mm
; top infill extrusion width = 0.40mm
; support material extrusion width = 0.40mm
; first layer extrusion width = 0.70mm

; external perimeters extrusion width = 0.45mm
; perimeters extrusion width = 0.45mm
; infill extrusion width = 0.45mm
; solid infill extrusion width = 0.45mm
; top infill extrusion width = 0.40mm
; support material extrusion width = 0.40mm
; first layer extrusion width = 0.70mm

; external perimeters extrusion width = 0.45mm
; perimeters extrusion width = 0.45mm
; infill extrusion width = 0.45mm
; solid infill extrusion width = 0.45mm
; top infill extrusion width = 0.40mm
; support material extrusion width = 0.40mm
; first layer extrusion width = 0.70mm

M104 S200 ; set temperature
;TYPE:Custom
G28 ; home all axes
G1 Z5 F5000 ; lift nozzle
M109 S200 ; set temperature and wait for it to be reached
G21 ; set units to millimeters
G90 ; use absolute coordinates
M82 ; use absolute distances for extrusion
G92 E0
; Filament gcode
M107
;LAYER_CHANGE
;Z:0.35
;HEIGHT:0.35
G1 E-2 F2400
G92 E0
G1 Z.35 F7800
G1 X84.92 Y40.27
G1 E2 F2400
;TYPE:Skirt/Brim
;WIDTH:0.7
G1 F1800
G1 X86.501 Y38.685 E2.20356
G1 X88.535 Y37.752 E2.40704
G1 X90.108 Y37.553 E2.55121
G1 X113.059 Y37.56 E4.63813
G1 X149.847 Y39.322 E7.98708
G1 X152.028 Y39.823 E8.19056
G1 X153.898 Y41.055 E8.39418
G1 X155.219 Y42.861 E8.59764
G1 X155.662 Y44.067 E8.71447
G1 X157.954 Y53.053 E9.55772
G1 X158.243 Y54.791 E9.71793
G1 X158.731 Y92.111 E13.11171
G1 X158.543 Y93.973 E13.28188
G1 X156.186 Y105.766 E14.37542
G1 X155.365 Y107.848 E14.57892
G1 X153.869 Y109.513 E14.78245
G1 X151.886 Y110.552 E14.98601
G1 X150.203 Y110.838 E15.14124
G1 X109.96 Y112.156 E18.80248
G1 X87.104 Y112.159 E20.88077
G1 X84.901 Y111.762 E21.08431
G1 X82.975 Y110.622 E21.28782
G1 X81.568 Y108.881 E21.49136
G1 X80.914 Y107.084 E21.66525
G1 X78.557 Y95.291 E22.75879
G1 X78.384 Y93.87 E22.88895
G1 X78.384 Y92.675 E22.99761
G1 X81.456 Y52.591 E26.65312
G1 X81.695 Y51.31 E26.77161
G1 X83.991 Y42.306 E27.61654
G1 X84.895 Y40.324 E27.81462
G1 E25.81462 F2400
G92 E0
G92 E0
G1 X109.753 Y88.641 F7800
G1 E2 F2400
;TYPE:Support material
G1 F1800
G1 X108.743 Y88.31 E2.09664
G1 X107.693 Y88.197 E2.19267
G1 X104.39 Y88.197 E2.49301
G1 X104.053 Y88.534 E2.53635
G1 X104.053 Y91.01 E2.76149
G1 X104.39 Y91.347 E2.80483
G1 X104.603 Y91.347 E2.8242
G1 X104.603 Y94.984 E3.15491
G1 X104.141 Y95.447 E3.21438
G1 X104.053 Y95.658 E3.23517
G1 X104.053 Y100.51 E3.67636
G1 X104.39 Y100.847 E3.7197
G1 X106.417 Y100.847 E3.90401
G1 X106.753 Y100.51 E3.94728
G1 X106.753 Y98.347 E4.14396
G1 X108.395 Y98.296 E4.29334
G1 X109.753 Y97.904 E4.42186
G1 X109.753 Y105.847 E5.14411
G1 X87.104 Y105.847 E7.20357
G1 X87.104 Y97.904 E7.92582
G1 X88.462 Y98.296 E8.05434
G1 X90.103 Y98.347 E8.20363
G1 X90.103 Y100.51 E8.40031
G1 X90.44 Y100.847 E8.44365
G1 X92.467 Y100.847 E8.62796
G1 X92.803 Y100.51 E8.67123
G1 X92.803 Y95.658 E9.11242
G1 X92.716 Y95.447 E9.13317
G1 X92.253 Y94.984 E9.19271
G1 X92.253 Y91.347 E9.52342
G1 X92.467 Y91.347 E9.54288
G1 X92.803 Y91.01 E9.58615
G1 X92.803 Y88.534 E9.81129
G1 X92.467 Y88.197 E9.85456
G1 X89.163 Y88.197 E10.15499
G1 X88.113 Y88.31 E10.25102
G1 X87.104 Y88.641 E10.34758
G1 X87.104 Y83.198 E10.84251
G1 X109.753 Y83.198 E12.90197
G1 X109.753 Y88.547 E13.38835
G1 E11.38835 F2400
G92 E0
G1 X108.843 Y105.566 F7800
G1 E2 F2400
G1 F1800
G1 X108.843 Y98.788 E2.61632
G1 X108.149 Y98.889 E2.68009
G1 X108.149 Y105.284 E3.26158
G1 X107.455 Y105.284 E3.32469
G1 X107.455 Y98.91 E3.90428
G1 X107.316 Y98.91 E3.91692
G1 X107.316 Y100.743 E4.08359
G1 X106.76 Y101.299 E4.15509
G1 X106.76 Y105.284 E4.51744
G1 X106.066 Y105.284 E4.58055
G1 X106.066 Y101.41 E4.93281
G1 X105.372 Y101.41 E4.99592
G1 X105.372 Y105.284 E5.34818
G1 X104.677 Y105.284 E5.41138
G1 X104.677 Y101.41 E5.76364
G1 X104.157 Y101.41 E5.81092
G1 X103.983 Y101.235 E5.83336
G1 X103.983 Y105.284 E6.20153
G1 X103.289 Y105.284 E6.26464
G1 X103.289 Y83.76 E8.22181
G1 X102.594 Y83.76 E8.28501
G1 X102.594 Y105.284 E10.24218
G1 X101.9 Y105.284 E10.30529
G1 X101.9 Y83.76 E12.26246
G1 X101.206 Y83.76 E12.32557
G1 X101.206 Y105.284 E14.28274
G1 X100.511 Y105.284 E14.34594
G1 X100.511 Y83.76 E16.30311
G1 X99.817 Y83.76 E16.36622
G1 X99.817 Y105.284 E18.32339
G1 X99.123 Y105.284 E18.3865
G1 X99.123 Y83.76 E20.34367
G1 X98.428 Y83.76 E20.40687
G1 X98.428 Y105.284 E22.36404
G1 X97.734 Y105.284 E22.42715
G1 X97.734 Y83.76 E24.38432
G1 X97.04 Y83.76 E24.44743
G1 X97.04 Y105.284 E26.4046
G1 X96.345 Y105.284 E26.4678
G1 X96.345 Y83.76 E28.42497
G1 X95.651 Y83.76 E28.48808
G1 X95.651 Y105.284 E30.44525
G1 X94.957 Y105.284 E30.50836
G1 X94.957 Y83.76 E32.46553
G1 X94.262 Y83.76 E32.52873
G1 X94.262 Y105.284 E34.4859
G1 X93.568 Y105.284 E34.54901
G1 X93.568 Y83.76 E36.50618
G1 X92.874 Y83.76 E36.56929
G1 X92.874 Y87.809 E36.93746
G1 X92.699 Y87.635 E36.9599
G1 X92.179 Y87.635 E37.00718
G1 X92.179 Y83.76 E37.35953
G1 X91.485 Y83.76 E37.42264
G1 X91.485 Y87.635 E37.77499
G1 X90.791 Y87.635 E37.8381
G1 X90.791 Y83.76 E38.19045
G1 X90.097 Y83.76 E38.25356
G1 X90.097 Y87.635 E38.60591
G1 X89.402 Y87.635 E38.66911
G1 X89.402 Y83.76 E39.02146
G1 X88.708 Y83.76 E39.08457
G1 X88.708 Y87.656 E39.43883
G1 X88.014 Y87.757 E39.5026
G1 X88.014 Y83.479 E39.8916
G1 X108.843 Y88.045 F7800
G1 F1800
G1 X108.843 Y83.76 E40.28123
G1 X108.149 Y83.76 E40.34434
G1 X108.149 Y87.656 E40.6986
G1 X107.455 Y87.635 E40.76173
G1 X107.455 Y83.76 E41.11408
G1 X106.76 Y83.76 E41.17728
G1 X106.76 Y87.635 E41.52963
G1 X106.066 Y87.635 E41.59274
G1 X106.066 Y83.76 E41.94509
G1 X105.372 Y83.76 E42.0082
G1 X105.372 Y87.635 E42.36055
G1 X104.677 Y87.635 E42.42375
G1 X104.677 Y83.76 E42.7761
G1 X103.983 Y83.76 E42.83921
G1 X103.983 Y87.809 E43.20738
G1 X103.491 Y88.301 E43.27065
G1 X103.491 Y91.243 E43.53816
G1 X103.983 Y91.735 E43.60143
G1 X103.983 Y95.207 E43.91714
G1 X92.874 Y105.566 F7800
G1 F1800
G1 X92.874 Y101.235 E44.31096
G1 X92.699 Y101.41 E44.33346
G1 X92.179 Y101.41 E44.38074
G1 X92.179 Y105.284 E44.733
G1 X91.485 Y105.284 E44.79611
G1 X91.485 Y101.41 E45.14837
G1 X90.791 Y101.41 E45.21148
G1 X90.791 Y105.284 E45.56374
G1 X90.097 Y105.284 E45.62685
G1 X90.097 Y101.299 E45.9892
G1 X89.541 Y100.743 E46.0607
G1 X89.541 Y98.91 E46.22737
G1 X89.402 Y98.91 E46.24001
G1 X89.402 Y105.284 E46.8196
G1 X88.708 Y105.284 E46.88271
G1 X88.708 Y98.889 E47.4642
G1 X88.014 Y98.788 E47.52797
G1 X88.014 Y105.566 E48.14429
G1 E46.14429 F2400
G92 E0
G1 X92.874 Y95.207 F7800
G1 E2 F2400
G1 F1800
G1 X92.874 Y91.338 E2.35181
G1 E.35181 F2400
G92 E0
G1 X89.273 Y92.86 F7800
G1 E2 F2400
G1 F1800
G1 X89.528 Y93.034 E2.02807
G1 X89.597 Y93.335 E2.05615
G1 X89.442 Y93.603 E2.0843
G1 X89.147 Y93.694 E2.11237
G1 X88.868 Y93.56 E2.14051
G1 X88.755 Y93.272 E2.16864
G1 X88.868 Y92.984 E2.19677
G1 X89.18 Y92.85 E2.22765
G1 E.22765 F2400
G92 E0
G1 X107.773 Y92.86 F7800
G1 E2 F2400
G1 F1800
G1 X108.028 Y93.034 E2.02807
G1 X108.097 Y93.335 E2.05615
G1 X107.942 Y93.603 E2.0843
G1 X107.647 Y93.694 E2.11237
G1 X107.368 Y93.56 E2.14051
G1 X107.255 Y93.272 E2.16864
G1 X107.368 Y92.984 E2.19677
G1 X107.68 Y92.85 E2.22765
G1 E.22765 F2400
G92 E0
G1 X87.846 Y93.272 F7800
G1 E2 F2400
;TYPE:External perimeter
;WIDTH:0.7
G1 F1800
G1 X87.89 Y92.967 E2.02802
G1 X87.999 Y92.627 E2.06049
G1 X88.331 Y92.221 E2.10818
G1 X88.812 Y91.979 E2.15714
G1 X89.257 Y91.925 E2.1979
G1 X89.714 Y92.035 E2.24064
G1 X90.068 Y92.265 E2.27903
G1 X90.418 Y92.753 E2.33364
;WIDTH:0.743751
G1 X90.495 Y93.012 E2.35993
;WIDTH:0.787503
G1 X90.572 Y93.272 E2.38804
G1 X90.495 Y93.532 E2.41615
;WIDTH:0.743751
G1 X90.418 Y93.792 E2.44253
;WIDTH:0.7
G1 X90.198 Y94.153 E2.48097
G1 X89.734 Y94.496 E2.53344
G1 X89.256 Y94.62 E2.57834
G1 X88.814 Y94.566 E2.61883
G1 X88.355 Y94.342 E2.66527
G1 X88.287 Y94.278 E2.67376
G1 X87.962 Y93.858 E2.72205
G1 X87.836 Y93.342 E2.77035
G1 X87.838 Y93.331 E2.77137
G1 X87.908 Y92.937 F7800
G1 X86.666 Y93.27
;TYPE:Perimeter
;WIDTH:0.547359
G1 F1800
G1 X86.666 Y93.272 E2.77151
;WIDTH:0.541156
G1 X86.695 Y93.601 E2.79391
G1 X86.835 Y94.179 E2.83424
;WIDTH:0.537707
G1 X87.015 Y94.549 E2.86194
;WIDTH:0.540689
G1 X87.371 Y95.007 E2.90124
G1 X87.747 Y95.339 E2.93522
;WIDTH:0.535539
G1 X88.309 Y95.618 E2.97726
;WIDTH:0.533865
G1 X88.641 Y95.73 E3.00065
;WIDTH:0.537514
G1 X89.145 Y95.784 E3.03476
;WIDTH:0.560778
G1 X89.588 Y95.763 E3.0661
;WIDTH:0.603317
G1 X90.155 Y95.63 E3.11086
G1 X90.256 Y95.85 E3.12947
G1 X90.51 Y96.221 E3.16403
G1 X90.032 Y96.234 E3.20078
;WIDTH:0.57766
G1 X89.554 Y96.247 E3.23575
;WIDTH:0.552004
G1 X88.805 Y96.224 E3.28775
;WIDTH:0.538279
G1 X88.363 Y96.133 E3.31816
;WIDTH:0.545753
G1 X87.779 Y95.892 E3.36143
G1 X87.416 Y95.672 E3.3905
;WIDTH:0.540689
G1 X87.016 Y95.308 E3.42714
G1 X86.592 Y94.746 E3.47483
;WIDTH:0.540265
G1 X86.349 Y94.173 E3.51696
G1 X86.222 Y93.568 E3.5588
G1 X86.223 Y92.955 E3.60029
;WIDTH:0.547359
G1 X86.293 Y92.574 E3.62691
G1 X86.508 Y91.961 E3.67155
;WIDTH:0.54164
G1 X86.724 Y91.6 E3.70011
G1 X87.117 Y91.129 E3.74175
;WIDTH:0.537593
G1 X87.502 Y90.816 E3.77514
;WIDTH:0.542147
G1 X88.107 Y90.5 E3.82153
G1 X88.575 Y90.356 E3.85481
;WIDTH:0.539787
G1 X89.122 Y90.296 E3.89202
;WIDTH:0.560935
G1 X89.644 Y90.303 E3.92893
;WIDTH:0.588189
G1 X90.23 Y90.316 E3.97269
G1 X90.141 Y90.596 E3.99463
G1 X90.134 Y90.927 E4.01935
G1 X89.828 Y90.823 E4.04348
G1 X89.245 Y90.756 E4.08729
;WIDTH:0.539207
G1 X88.741 Y90.796 E4.12143
;WIDTH:0.542147
G1 X88.304 Y90.924 E4.15238
G1 X87.695 Y91.239 E4.19898
;WIDTH:0.536386
G1 X87.376 Y91.536 E4.22824
;WIDTH:0.536088
G1 X86.928 Y92.144 E4.2789
;WIDTH:0.547359
G1 X86.746 Y92.707 E4.31956
G1 X86.674 Y93.211 E4.35455
G1 E2.35455 F2400
G92 E0
G1 X91.005 Y90.098 F7800
G1 E2 F2400
;WIDTH:0.7
G1 F1800
G1 X90.829 Y90.267 E2.02219
G1 X90.703 Y90.735 E2.06626
G1 X90.703 Y92.059 E2.18665
G1 X90.556 Y91.875 E2.20806
G1 X90.293 Y91.648 E2.23965
G1 X90.026 Y91.494 E2.26768
G1 X89.702 Y91.378 E2.29897
G1 X89.187 Y91.303 E2.34629
G1 X88.689 Y91.36 E2.39187
G1 X88.126 Y91.615 E2.44807
G1 X87.854 Y91.813 E2.47866
G1 X87.511 Y92.237 E2.52825
G1 X87.362 Y92.504 E2.55605
G1 X87.227 Y93.064 E2.60843
G1 X87.217 Y93.434 E2.64209
G1 X87.329 Y93.929 E2.68824
G1 X87.466 Y94.245 E2.71956
G1 X87.798 Y94.667 E2.76838
G1 X88.034 Y94.879 E2.79723
G1 X88.543 Y95.129 E2.84879
G1 X88.879 Y95.219 E2.88042
G1 X89.418 Y95.231 E2.92944
G1 X89.927 Y95.1 E2.97723
G1 X90.469 Y94.751 E3.03585
G1 X90.703 Y94.516 E3.06601
G1 X90.703 Y94.875 E3.09865
G1 X90.738 Y95.489 E3.15457
G1 X90.978 Y95.901 E3.19793
G1 X91.253 Y96.176 E3.23329
G1 X91.253 Y96.99 E3.30731
G1 X90.716 Y96.797 E3.3592
G1 X89.256 Y96.797 E3.49196
G1 X88.742 Y96.765 E3.53879
G1 X88.223 Y96.662 E3.5869
G1 X87.573 Y96.399 E3.65066
G1 X87.154 Y96.151 E3.69493
G1 X86.731 Y95.806 E3.74456
G1 X86.372 Y95.396 E3.79411
G1 X86.017 Y94.807 E3.85664
G1 X85.777 Y94.177 E3.91794
G1 X85.678 Y93.656 E3.96616
G1 X85.678 Y92.955 E4.0299
G1 X85.754 Y92.452 E4.07616
G1 X85.998 Y91.777 E4.14142
G1 X86.25 Y91.316 E4.18919
G1 X86.7 Y90.78 E4.25283
G1 X87.108 Y90.422 E4.30219
G1 X87.56 Y90.148 E4.35025
G1 X88.028 Y89.946 E4.3966
G1 X88.712 Y89.789 E4.46041
G1 X89.231 Y89.747 E4.50776
G1 X91.253 Y89.747 E4.69162
G1 X91.253 Y89.83 E4.69917
G1 X91.253 Y89.892 E4.70481
G1 X91.209 Y89.903 E4.70893
G1 X91.048 Y90.057 E4.72919
G1 X91.429 Y90.522 F7800
;TYPE:External perimeter
G1 F1800
G1 X91.37 Y90.579 E4.73665
G1 X91.328 Y90.735 E4.75134
G1 X91.328 Y92.65 E4.92547
;WIDTH:0.74645
G1 X91.305 Y93.023 E4.96198
;WIDTH:0.7929
G1 X91.282 Y93.396 E5.00101
G1 X91.305 Y93.645 E5.02713
;WIDTH:0.74645
G1 X91.328 Y93.894 E5.05156
;WIDTH:0.7
G1 X91.329 Y95.262 E5.17595
G1 X91.42 Y95.459 E5.19568
G1 X91.878 Y95.917 E5.25458
G1 X91.878 Y97.047 E5.35733
;WIDTH:0.737509
G1 X91.86 Y97.276 E5.37947
;WIDTH:0.775019
G1 X91.841 Y97.505 E5.40287
;WIDTH:0.812529
G1 X91.822 Y97.735 E5.42763
G1 X91.822 Y99.866 E5.65629
G1 X91.085 Y99.866 E5.73537
G1 X91.085 Y97.735 E5.96403
G1 X91.029 Y97.655 E5.97451
;WIDTH:0.775019
G1 X90.973 Y97.575 E5.98446
;WIDTH:0.737509
G1 X90.917 Y97.495 E5.99387
;WIDTH:0.7
G1 X90.716 Y97.422 E6.01331
G1 X89.191 Y97.422 E6.15198
G1 X88.601 Y97.381 E6.20576
G1 X88.039 Y97.262 E6.258
G1 X87.225 Y96.933 E6.33783
G1 X86.74 Y96.629 E6.38988
G1 X86.296 Y96.257 E6.44255
G1 X85.909 Y95.827 E6.49515
G1 X85.585 Y95.346 E6.54788
G1 X85.332 Y94.827 E6.60038
G1 X85.152 Y94.276 E6.65309
G1 X85.053 Y93.711 E6.70525
G1 X85.053 Y92.833 E6.78509
G1 X85.148 Y92.291 E6.83513
G1 X85.452 Y91.448 E6.91662
G1 X85.736 Y90.956 E6.96828
G1 X86.222 Y90.378 E7.03695
G1 X86.665 Y89.978 E7.09122
G1 X87.133 Y89.669 E7.14221
G1 X87.628 Y89.432 E7.19211
G1 X88.092 Y89.278 E7.23656
G1 X88.625 Y89.17 E7.28601
G1 X89.221 Y89.122 E7.34038
G1 X91.878 Y89.122 E7.58198
G1 X91.878 Y89.83 E7.64636
G1 X91.878 Y90.422 E7.70019
G1 X91.497 Y90.457 E7.73498
G1 X91.472 Y90.481 E7.73813
G1 X91.34 Y90.858 F7800
G1 E5.73813 F2400
G92 E0
G1 X108.873 Y92.697 F7800
G1 E2 F2400
G1 F1800
G1 X109.012 Y93.063 E2.0356
G1 X108.995 Y93.541 E2.07909
G1 X108.806 Y94.014 E2.12541
G1 X108.408 Y94.401 E2.17589
G1 X108.2 Y94.497 E2.19672
G1 X107.722 Y94.618 E2.24156
G1 X107.314 Y94.566 E2.27896
G1 X106.787 Y94.278 E2.33357
G1 X106.438 Y93.791 E2.38805
;WIDTH:0.743752
G1 X106.361 Y93.531 E2.41443
;WIDTH:0.787504
G1 X106.285 Y93.272 E2.44241
G1 X106.362 Y93.012 E2.47052
;WIDTH:0.743752
G1 X106.439 Y92.753 E2.49681
;WIDTH:0.7
G1 X106.788 Y92.265 E2.55136
G1 X107.312 Y91.979 E2.60564
G1 X107.811 Y91.93 E2.65123
G1 X108.265 Y92.065 E2.6943
G1 X108.555 Y92.248 E2.72548
G1 X108.826 Y92.572 E2.76389
G1 X108.852 Y92.641 E2.77059
G1 X108.991 Y93.016 F7800
G1 X109.932 Y92.187
;TYPE:Perimeter
;WIDTH:0.54196
G1 F1800
G1 X109.915 Y92.143 E2.77379
G1 X109.765 Y91.864 E2.79531
;WIDTH:0.535699
G1 X109.41 Y91.454 E2.83166
G1 X109.064 Y91.182 E2.86116
;WIDTH:0.529059
G1 X108.61 Y90.939 E2.89517
;WIDTH:0.52834
G1 X108.086 Y90.798 E2.93096
;WIDTH:0.536917
G1 X107.647 Y90.761 E2.96056
;WIDTH:0.581019
G1 X107.034 Y90.816 E3.00587
G1 X106.719 Y90.944 E3.0309
G1 X106.719 Y90.735 E3.04629
G1 X106.624 Y90.319 E3.0777
G1 X107.319 Y90.305 E3.12887
;WIDTH:0.549006
G1 X107.861 Y90.303 E3.16625
;WIDTH:0.536235
G1 X108.525 Y90.424 E3.21154
;WIDTH:0.537802
G1 X109.095 Y90.661 E3.2531
G1 X109.672 Y91.066 E3.30056
;WIDTH:0.534414
G1 X110.061 Y91.494 E3.33921
;WIDTH:0.54196
G1 X110.352 Y91.978 E3.37757
G1 X110.528 Y92.454 E3.41205
;WIDTH:0.535602
G1 X110.637 Y92.956 E3.44647
;WIDTH:0.534996
G1 X110.637 Y93.59 E3.4889
G1 X110.529 Y94.086 E3.52287
;WIDTH:0.541701
G1 X110.351 Y94.566 E3.55763
G1 X110.156 Y94.919 E3.58501
;WIDTH:0.545106
G1 X109.73 Y95.414 E3.62967
G1 X109.253 Y95.797 E3.67151
;WIDTH:0.536967
G1 X108.8 Y96.015 E3.7053
G1 X108.313 Y96.163 E3.73951
;WIDTH:0.53416
G1 X107.89 Y96.238 E3.76821
;WIDTH:0.552941
G1 X107.32 Y96.246 E3.80785
;WIDTH:0.578344
G1 X106.833 Y96.233 E3.84352
;WIDTH:0.603748
G1 X106.347 Y96.221 E3.88092
G1 X106.601 Y95.85 E3.91551
G1 X106.674 Y95.592 E3.93614
G1 X106.933 Y95.708 E3.95797
G1 X107.135 Y95.738 E3.97368
;WIDTH:0.578344
G1 X107.338 Y95.769 E3.98872
;WIDTH:0.552941
G1 X107.858 Y95.782 E4.02489
;WIDTH:0.53416
G1 X108.19 Y95.721 E4.04744
G1 X108.843 Y95.498 E4.09353
;WIDTH:0.530128
G1 X109.109 Y95.333 E4.11426
;WIDTH:0.534644
G1 X109.54 Y94.944 E4.15308
G1 X109.817 Y94.596 E4.18282
;WIDTH:0.534996
G1 X110.082 Y93.969 E4.22837
G1 X110.178 Y93.568 E4.25596
G1 X110.178 Y92.978 E4.29544
;WIDTH:0.535602
G1 X110.096 Y92.612 E4.32057
;WIDTH:0.54196
G1 X109.954 Y92.243 E4.34743
G1 E2.34743 F2400
G92 E0
G1 X105.845 Y90.105 F7800
G1 E2 F2400
;WIDTH:0.7
G1 F1800
G1 X105.603 Y89.892 E2.02931
G1 X105.603 Y89.75 E2.04222
