; generated by PrusaSlicer 2.9.2 on 2025-10-23 at 23:36:14 UTC

; 

; external perimeters extrusion width = 0.45mm
; perimeters extrusion width = 0.45mm
; infill extrusion width = 0.45mm
; solid infill extrusion width = 0.45mm
; top infill extrusion width = 0.40mm
; first layer extrusion width = 0.70mm

M104 S200 ; set temperature
;TYPE:Custom
G28 ; home all axes
G1 Z5 F5000 ; lift nozzle
M109 S200 ; set temperature and wait for it to be reached
G21 ; set units to millimeters
G90 ; use absolute coordinates
M82 ; use absolute distances for extrusion
G92 E0
; Filament gcode
M107
;LAYER_CHANGE
;Z:0.35
;HEIGHT:0.35
G1 E-2 F2400
G92 E0
G1 Z.35 F7800
G1 X24.928 Y20.146
G1 E2 F2400
;TYPE:Skirt/Brim
;WIDTH:0.7
G1 F1800
G1 X25.604 Y19.492 E2.08553
G1 X26.644 Y18.88 E2.19526
G1 X27.713 Y18.534 E2.29743
G1 X28.831 Y18.392 E2.39991
G1 X171.792 Y18.396 E15.39929
G1 X173.098 Y18.748 E15.52228
G1 X173.753 Y19.086 E15.5893
G1 X174.774 Y19.848 E15.70514
G1 X175.428 Y20.524 E15.79067
G1 X176.188 Y21.946 E15.93728
G1 X176.454 Y22.981 E16.03445
G1 X176.528 Y23.752 E16.10488
G1 X176.528 Y176.248 E29.97128
G1 X176.454 Y177.019 E30.04171
G1 X176.188 Y178.054 E30.13888
G1 X175.428 Y179.476 E30.28549
G1 X174.774 Y180.152 E30.37102
G1 X173.41 Y181.102 E30.52217
G1 X172.09 Y181.56 E30.64922
G1 X171.272 Y181.643 E30.72398
G1 X28.728 Y181.643 E43.68545
G1 X27.91 Y181.56 E43.76021
G1 X26.902 Y181.252 E43.85605
G1 X26.152 Y180.855 E43.93321
G1 X25.226 Y180.152 E44.03893
G1 X24.572 Y179.476 E44.12446
G1 X23.96 Y178.436 E44.23419
G1 X23.614 Y177.367 E44.33636
G1 X23.472 Y176.249 E44.43884
G1 X23.437 Y23.649 E58.31469
G1 X23.52 Y22.83 E58.38954
G1 X23.828 Y21.822 E58.48538
G1 X24.225 Y21.072 E58.56254
G1 X24.892 Y20.194 E58.6628
G1 X25.389 Y20.573 F7800
G1 F1800
G1 X25.419 Y20.534 E58.66727
G1 X25.975 Y19.995 E58.73768
G1 X26.869 Y19.463 E58.83228
G1 X27.832 Y19.148 E58.92441
G1 X28.831 Y19.017 E59.01603
G1 X171.7 Y19.014 E72.00705
G1 X172.828 Y19.312 E72.11314
G1 X173.423 Y19.617 E72.17394
G1 X174.386 Y20.339 E72.28338
G1 X174.925 Y20.895 E72.35379
G1 X175.605 Y22.172 E72.48534
G1 X175.84 Y23.101 E72.57247
G1 X175.903 Y23.752 E72.63194
G1 X175.903 Y176.248 E86.49834
G1 X175.84 Y176.899 E86.55781
G1 X175.605 Y177.828 E86.64494
G1 X174.925 Y179.105 E86.77649
G1 X174.386 Y179.661 E86.8469
G1 X173.14 Y180.539 E86.9855
G1 X171.998 Y180.942 E87.09562
G1 X171.272 Y181.018 E87.162
G1 X28.728 Y181.018 E100.12347
G1 X28.002 Y180.942 E100.18985
G1 X27.172 Y180.688 E100.26878
G1 X26.483 Y180.325 E100.33959
G1 X25.614 Y179.661 E100.43903
G1 X24.916 Y178.889 E100.53367
G1 X24.543 Y178.211 E100.60403
G1 X24.227 Y177.248 E100.69619
G1 X24.097 Y176.249 E100.78779
G1 X24.062 Y23.648 E114.66374
G1 X24.138 Y22.922 E114.73012
G1 X24.392 Y22.092 E114.80905
G1 X24.755 Y21.403 E114.87986
G1 X25.352 Y20.621 E114.96932
G1 X25.848 Y21.001 F7800
G1 F1800
G1 X25.909 Y20.921 E114.97847
G1 X26.346 Y20.498 E115.03377
G1 X27.095 Y20.046 E115.11332
G1 X27.952 Y19.761 E115.19544
G1 X28.831 Y19.642 E115.2761
G1 X171.608 Y19.632 E128.25875
G1 X172.558 Y19.876 E128.34794
G1 X173.092 Y20.147 E128.40239
G1 X173.999 Y20.829 E128.50558
G1 X174.422 Y21.266 E128.56088
G1 X175.022 Y22.397 E128.6773
G1 X175.278 Y23.752 E128.80269
G1 X175.278 Y176.248 E142.66909
G1 X175.022 Y177.603 E142.79448
G1 X174.422 Y178.734 E142.9109
G1 X173.999 Y179.171 E142.9662
G1 X172.87 Y179.975 E143.09223
G1 X171.906 Y180.324 E143.18545
G1 X171.272 Y180.393 E143.24344
G1 X28.728 Y180.393 E156.20491
G1 X28.094 Y180.324 E156.2629
G1 X27.442 Y180.124 E156.32491
G1 X26.813 Y179.794 E156.3895
G1 X26.001 Y179.171 E156.48256
G1 X25.418 Y178.518 E156.56216
G1 X25.126 Y177.985 E156.61742
G1 X24.841 Y177.128 E156.69954
G1 X24.722 Y176.249 E156.7802
G1 X24.687 Y23.648 E170.65615
G1 X24.756 Y23.014 E170.71414
G1 X24.956 Y22.362 E170.77615
G1 X25.286 Y21.733 E170.84074
G1 X25.811 Y21.049 E170.91914
G1 X26.305 Y21.43 F7800
G1 F1800
G1 X26.4 Y21.308 E170.9332
G1 X26.717 Y21.001 E170.97333
G1 X27.32 Y20.628 E171.0378
G1 X28.071 Y20.374 E171.10989
G1 X28.832 Y20.267 E171.17977
G1 X171.516 Y20.25 E184.15397
G1 X172.288 Y20.439 E184.22624
G1 X172.762 Y20.677 E184.27447
G1 X173.919 Y21.637 E184.41117
G1 X174.44 Y22.623 E184.51257
G1 X174.653 Y23.752 E184.61704
G1 X174.653 Y176.248 E198.48344
G1 X174.44 Y177.377 E198.58791
G1 X173.919 Y178.363 E198.68931
G1 X173.612 Y178.68 E198.72944
G1 X172.6 Y179.411 E198.84296
G1 X171.815 Y179.706 E198.91921
G1 X171.272 Y179.768 E198.96891
G1 X28.728 Y179.768 E211.93038
G1 X27.712 Y179.561 E212.02466
G1 X27.144 Y179.264 E212.08294
G1 X26.388 Y178.68 E212.1698
G1 X25.921 Y178.147 E212.23424
G1 X25.708 Y177.76 E212.27441
G1 X25.454 Y177.009 E212.3465
G1 X25.347 Y176.248 E212.41638
G1 X25.312 Y23.648 E226.29223
G1 X25.519 Y22.632 E226.38651
G1 X25.816 Y22.064 E226.44479
G1 X26.269 Y21.478 E226.51214
G1 X26.776 Y21.851 F7800
G1 F1800
G1 X26.89 Y21.695 E226.52971
G1 X27.546 Y21.211 E226.60384
G1 X28.101 Y21.009 E226.65754
G1 X28.832 Y20.892 E226.72486
G1 X171.425 Y20.868 E239.69078
G1 X172.018 Y21.003 E239.74608
G1 X172.431 Y21.208 E239.78801
G1 X173.417 Y22.008 E239.90347
G1 X173.857 Y22.848 E239.9897
G1 X174.028 Y23.752 E240.07336
G1 X174.028 Y176.248 E253.93976
G1 X173.857 Y177.152 E254.02342
G1 X173.417 Y177.992 E254.10965
G1 X172.331 Y178.848 E254.23539
G1 X171.723 Y179.088 E254.29483
G1 X171.272 Y179.143 E254.33614
G1 X28.728 Y179.143 E267.29761
G1 X28.277 Y179.088 E267.33892
G1 X27.669 Y178.848 E267.39836
G1 X26.775 Y178.19 E267.4993
G1 X26.291 Y177.534 E267.57343
G1 X26.089 Y176.979 E267.62713
G1 X25.972 Y176.248 E267.69445
G1 X25.937 Y23.648 E281.5703
G1 X25.992 Y23.197 E281.61161
G1 X26.232 Y22.589 E281.67105
G1 X26.74 Y21.899 E281.74896
G1 X27.237 Y22.273 F7800
G1 F1800
G1 X27.381 Y22.082 E281.77071
G1 X27.771 Y21.794 E281.81479
G1 X28.274 Y21.61 E281.86349
G1 X28.832 Y21.517 E281.91493
G1 X171.333 Y21.486 E294.87249
G1 X171.748 Y21.566 E294.91092
G1 X172.101 Y21.738 E294.94663
G1 X172.914 Y22.38 E295.04083
G1 X173.274 Y23.074 E295.11192
G1 X173.403 Y23.752 E295.17468
G1 X173.403 Y176.248 E309.04108
G1 X173.274 Y176.926 E309.10384
G1 X172.914 Y177.62 E309.17493
G1 X172.061 Y178.284 E309.27322
G1 X171.631 Y178.47 E309.31582
G1 X171.272 Y178.518 E309.34875
G1 X28.728 Y178.518 E322.31022
G1 X28.369 Y178.47 E322.34315
G1 X27.939 Y178.284 E322.38575
G1 X27.162 Y177.699 E322.47419
G1 X26.874 Y177.308 E322.51835
G1 X26.69 Y176.806 E322.56697
G1 X26.597 Y176.248 E322.61841
G1 X26.562 Y23.648 E336.49426
G1 X26.61 Y23.289 E336.52719
G1 X26.796 Y22.859 E336.56979
G1 X27.201 Y22.321 E336.63102
G1 X28.068 Y22.991 F7800
G1 F1800
G1 X28.188 Y22.835 E336.64892
G1 X28.88 Y22.617 E336.71489
G1 X171.363 Y22.603 E349.67081
G1 X172.084 Y23.107 E349.7508
G1 X172.303 Y23.8 E349.81689
G1 X172.303 Y176.2 E363.67456
G1 X172.085 Y176.892 E363.74053
G1 X171.537 Y177.315 E363.80348
G1 X171.274 Y177.411 E363.82894
G1 X28.726 Y177.411 E376.79077
G1 X28.463 Y177.315 E376.81623
G1 X27.915 Y176.892 E376.87918
G1 X27.697 Y176.2 E376.94515
G1 X27.669 Y23.646 E390.81682
G1 X27.765 Y23.383 E390.84228
G1 X28.031 Y23.039 E390.88182
G1 E388.88182 F2400
G92 E0
G92 E0
G1 X29.609 Y24.588 F7800
G1 E2 F2400
;TYPE:Perimeter
;WIDTH:0.7
G1 F1800
G1 X29.609 Y24.529 E2.00536
G1 X170.391 Y24.529 E14.8066
G1 X170.391 Y175.471 E28.53168
G1 X29.609 Y175.471 E41.33292
G1 X29.609 Y24.648 E55.04718
G1 X29.022 Y23.904 F7800
G1 F1800
G1 X170.983 Y23.904 E67.95563
G1 X171.016 Y23.937 E67.95987
G1 X171.008 Y176.096 E81.79562
G1 X29.017 Y176.096 E94.70679
G1 X28.984 Y176.067 E94.71078
G1 X28.984 Y23.944 E108.54325
G1 X28.627 Y23.363 F7800
;TYPE:External perimeter
G1 F1800
G1 X28.927 Y23.279 E108.57158
G1 X171.17 Y23.275 E121.50567
G1 X171.554 Y23.538 E121.54799
G1 X171.641 Y23.937 E121.58512
G1 X171.641 Y176.063 E135.41786
G1 X171.553 Y176.468 E135.45555
G1 X171.257 Y176.702 E135.48986
G1 X171.123 Y176.721 E135.50217
G1 X28.83 Y176.725 E148.4408
G1 X28.446 Y176.462 E148.48312
G1 X28.359 Y176.153 E148.51231
G1 X28.355 Y23.75 E162.37024
G1 X28.589 Y23.408 E162.40792
G1 X28.972 Y23.292 F7800
G1 E160.40792 F2400
G92 E0
G1 X170.204 Y25.981 F7800
G1 E2 F2400
;TYPE:Solid infill
;WIDTH:0.70076
G1 F1800
G1 X169.22 Y24.997 E2.12669
G1 X168.335 Y24.997 E2.20726
G1 X169.923 Y26.585 E2.41172
G1 X169.923 Y27.469 E2.4922
G1 X167.451 Y24.997 E2.81047
G1 X166.566 Y24.997 E2.89104
G1 X169.923 Y28.354 E3.32325
G1 X169.923 Y29.239 E3.40382
G1 X165.681 Y24.997 E3.94998
G1 X164.796 Y24.997 E4.03055
G1 X169.923 Y30.124 E4.69065
G1 X169.923 Y31.009 E4.77122
G1 X163.911 Y24.997 E5.54527
G1 X163.027 Y24.997 E5.62575
G1 X169.923 Y31.893 E6.51361
G1 X169.923 Y32.778 E6.59418
G1 X162.142 Y24.997 E7.59598
G1 X161.257 Y24.997 E7.67655
G1 X169.923 Y33.663 E8.7923
G1 X169.923 Y34.548 E8.87287
G1 X160.372 Y24.997 E10.10256
G1 X159.487 Y24.997 E10.18313
G1 X169.923 Y35.433 E11.52677
G1 X169.923 Y36.317 E11.60725
G1 X158.603 Y24.997 E13.0647
G1 X157.718 Y24.997 E13.14527
G1 X169.923 Y37.202 E14.71667
G1 X169.923 Y38.087 E14.79724
G1 X156.833 Y24.997 E16.48258
G1 X155.948 Y24.997 E16.56315
G1 X169.923 Y38.972 E18.36243
G1 X169.923 Y39.857 E18.443
G1 X155.063 Y24.997 E20.35623
G1 X154.178 Y24.997 E20.4368
G1 X169.923 Y40.742 E22.46397
G1 X169.923 Y41.626 E22.54445
G1 X153.294 Y24.997 E24.68544
G1 X152.409 Y24.997 E24.76601
G1 X169.923 Y42.511 E27.02094
G1 X169.923 Y43.396 E27.10151
G1 X151.524 Y24.997 E29.47038
G1 X150.639 Y24.997 E29.55095
G1 X169.923 Y44.281 E32.03377
G1 X169.923 Y45.166 E32.11434
G1 X149.754 Y24.997 E34.7111
G1 X148.87 Y24.997 E34.79158
G1 X169.923 Y46.05 E37.50216
G1 X169.923 Y46.935 E37.58273
G1 X147.985 Y24.997 E40.40725
G1 X147.1 Y24.997 E40.48782
G1 X169.923 Y47.82 E43.42628
G1 X169.923 Y48.705 E43.50685
G1 X146.215 Y24.997 E46.55926
G1 X145.33 Y24.997 E46.63983
G1 X169.923 Y49.59 E49.80618
G1 X169.923 Y50.474 E49.88666
G1 X144.446 Y24.997 E53.16683
G1 X143.561 Y24.997 E53.2474
G1 X169.923 Y51.359 E56.64151
G1 X169.923 Y52.244 E56.72208
G1 X142.676 Y24.997 E60.23014
G1 X141.791 Y24.997 E60.31071
G1 X169.923 Y53.129 E63.93271
G1 X169.923 Y54.014 E64.01328
G1 X140.906 Y24.997 E67.74922
G1 X140.022 Y24.997 E67.8297
G1 X169.923 Y54.898 E71.67946
G1 X169.923 Y55.783 E71.76003
G1 X139.137 Y24.997 E75.72373
G1 X138.252 Y24.997 E75.8043
G1 X169.923 Y56.668 E79.88195
G1 X169.923 Y57.553 E79.96252
G1 X137.367 Y24.997 E84.15411
G1 X136.482 Y24.997 E84.23468
G1 X169.923 Y58.438 E88.54021
G1 X169.923 Y59.322 E88.62069
G1 X135.598 Y24.997 E93.04004
G1 X134.713 Y24.997 E93.12061
G1 X169.923 Y60.207 E97.6539
G1 X169.923 Y61.092 E97.73447
G1 X133.828 Y24.997 E102.38171
G1 X132.943 Y24.997 E102.46228
G1 X169.923 Y61.977 E107.22346
G1 X169.923 Y62.862 E107.30403
G1 X132.058 Y24.997 E112.17915
G1 X131.174 Y24.997 E112.25963
G1 X169.923 Y63.746 E117.24857
G1 X169.923 Y64.631 E117.32914
G1 X130.289 Y24.997 E122.43202
G1 X129.404 Y24.997 E122.51259
G1 X169.923 Y65.516 E127.72942
G1 X169.923 Y66.401 E127.80999
G1 X128.519 Y24.997 E133.14076
G1 X127.634 Y24.997 E133.22133
G1 X169.923 Y67.286 E138.66605
G1 X169.923 Y68.17 E138.74653
G1 X126.75 Y24.997 E144.30506
G1 X125.865 Y24.997 E144.38563
G1 X169.923 Y69.055 E150.0581
G1 X169.923 Y69.94 E150.13867
G1 X124.98 Y24.997 E155.92509
G1 X124.095 Y24.997 E156.00566
G1 X169.923 Y70.825 E161.90602
G1 X169.923 Y71.71 E161.98659
G1 X123.21 Y24.997 E168.0009
G1 X122.326 Y24.997 E168.08138
G1 X169.923 Y72.594 E174.2095
G1 X169.923 Y73.479 E174.29007
G1 X121.441 Y24.997 E180.53214
G1 X120.556 Y24.997 E180.61271
G1 X169.923 Y74.364 E186.96872
G1 X169.923 Y75.249 E187.04929
G1 X119.671 Y24.997 E193.51924
G1 X118.786 Y24.997 E193.59981
G1 X169.923 Y76.134 E200.18371
G1 X169.923 Y77.018 E200.26419
G1 X117.902 Y24.997 E206.9619
G1 X117.017 Y24.997 E207.04247
G1 X169.923 Y77.903 E213.85413
G1 X169.923 Y78.788 E213.9347
G1 X116.132 Y24.997 E220.8603
G1 X115.247 Y24.997 E220.94087
G1 X169.923 Y79.673 E227.98041
G1 X169.923 Y80.558 E228.06098
G1 X114.362 Y24.997 E235.21447
G1 X113.478 Y24.997 E235.29495
G1 X169.923 Y81.442 E242.56225
G1 X169.923 Y82.327 E242.64282
G1 X112.593 Y24.997 E250.02407
G1 X111.708 Y24.997 E250.10464
G1 X169.923 Y83.212 E257.59983
G1 X169.923 Y84.097 E257.6804
G1 X110.823 Y24.997 E265.28953
G1 X109.938 Y24.997 E265.3701
G1 X169.923 Y84.982 E273.09318
G1 X169.923 Y85.866 E273.17366
G1 X109.054 Y24.997 E281.01055
G1 X108.169 Y24.997 E281.09112
G1 X169.923 Y86.751 E289.04196
G1 X169.922 Y87.636 E289.12253
G1 X107.284 Y24.997 E297.18725
G1 X106.399 Y24.997 E297.26782
G1 X169.922 Y88.521 E305.44648
G1 X169.922 Y89.406 E305.52705
G1 X105.514 Y24.997 E313.81965
G1 X104.63 Y24.997 E313.90013
G1 X169.922 Y90.29 E322.30655
G1 X169.922 Y91.175 E322.38712
G1 X103.745 Y24.997 E330.90748
G1 X102.86 Y24.997 E330.98805
G1 X169.922 Y92.06 E339.62236
G1 X169.922 Y92.945 E339.70293
G1 X101.975 Y24.997 E348.45118
G1 X101.09 Y24.997 E348.53175
G1 X169.922 Y93.83 E357.39395
G1 X169.922 Y94.714 E357.47443
G1 X100.206 Y24.997 E366.45044
G1 X99.321 Y24.997 E366.53101
G1 X169.922 Y95.599 E375.62096
G1 X169.922 Y96.484 E375.70153
G1 X98.436 Y24.997 E384.90543
G1 X97.551 Y24.997 E384.986
G1 X169.922 Y97.369 E394.30384
G1 X169.922 Y98.254 E394.38441
G1 X96.666 Y24.997 E403.8162
G1 X95.782 Y24.997 E403.89668
G1 X169.922 Y99.138 E413.44228
G1 X169.923 Y100.023 E413.52285
G1 X94.897 Y24.997 E423.18246
G1 X94.012 Y24.997 E423.26303
G1 X169.923 Y100.908 E433.03658
G1 X169.923 Y101.793 E433.11715
G1 X93.127 Y24.997 E443.00465
G1 X92.242 Y24.997 E443.08522
G1 X169.923 Y102.678 E453.08666
G1 X169.923 Y103.562 E453.16714
G1 X91.358 Y24.997 E463.2824
G1 X90.473 Y24.997 E463.36297
G1 X169.923 Y104.447 E473.59217
G1 X169.923 Y105.332 E473.67274
G1 X89.588 Y24.997 E484.01588
G1 X88.703 Y24.997 E484.09645
G1 X169.923 Y106.217 E494.55354
G1 X169.923 Y107.102 E494.63411
G1 X87.818 Y24.997 E505.20514
G1 X86.934 Y24.997 E505.28562
G1 X169.923 Y107.986 E515.97047
G1 X169.923 Y108.871 E516.05104
G1 X86.049 Y24.997 E526.84983
G1 X85.164 Y24.997 E526.9304
G1 X169.923 Y109.756 E537.84313
G1 X169.923 Y110.641 E537.9237
G1 X84.279 Y24.997 E548.95038
G1 X83.394 Y24.997 E549.03095
G1 X169.923 Y111.526 E560.17157
G1 X169.923 Y112.41 E560.25205
G1 X82.51 Y24.997 E571.50649
G1 X81.625 Y24.997 E571.58706
G1 X169.923 Y113.295 E582.95544
G1 X169.923 Y114.18 E583.03601
G1 X80.74 Y24.997 E594.51834
G1 X79.855 Y24.997 E594.59891
G1 X169.923 Y115.065 E606.19518
G1 X169.923 Y115.95 E606.27575
G1 X78.97 Y24.997 E617.98596
G1 X78.086 Y24.997 E618.06644
G1 X169.923 Y116.834 E629.89047
G1 X169.923 Y117.719 E629.97104
G1 X77.201 Y24.997 E641.90901
G1 X76.316 Y24.997 E641.98958
G1 X169.923 Y118.604 E654.0415
G1 X169.923 Y119.489 E654.12207
G1 X75.431 Y24.997 E666.28793
G1 X74.546 Y24.997 E666.3685
G1 X169.923 Y120.374 E678.6483
G1 X169.923 Y121.258 E678.72878
G1 X73.662 Y24.997 E691.1224
G1 X72.777 Y24.997 E691.20297
G1 X169.923 Y122.143 E703.71053
G1 X169.923 Y123.028 E703.7911
G1 X71.892 Y24.997 E716.41261
G1 X71.007 Y24.997 E716.49318
G1 X169.923 Y123.913 E729.22863
G1 X169.923 Y124.798 E729.3092
G1 X70.122 Y24.997 E742.15859
G1 X69.238 Y24.997 E742.23907
G1 X169.923 Y125.682 E755.20228
G1 X169.923 Y126.567 E755.28285
G1 X68.353 Y24.997 E768.36
G1 X67.468 Y24.997 E768.44057
G1 X169.923 Y127.452 E781.63167
G1 X169.923 Y128.337 E781.71224
G1 X66.583 Y24.997 E795.01728
G1 X65.698 Y24.997 E795.09785
G1 X169.923 Y129.222 E808.51684
G1 X169.923 Y130.106 E808.59732
G1 X64.814 Y24.997 E822.13012
G1 X63.929 Y24.997 E822.21069
G1 X169.923 Y130.991 E835.85743
G1 X169.923 Y131.876 E835.938
G1 X63.044 Y24.997 E849.69869
G1 X62.159 Y24.997 E849.77926
G1 X169.923 Y132.761 E863.65389
G1 X169.923 Y133.646 E863.73446
G1 X61.274 Y24.997 E877.72304
G1 X60.39 Y24.997 E877.80352
G1 X169.923 Y134.53 E891.90591
G1 X169.923 Y135.415 E891.98648
G1 X59.505 Y24.997 E906.20281
G1 X58.62 Y24.997 E906.28338
G1 X169.923 Y136.3 E920.61366
G1 X169.923 Y137.185 E920.69423
G1 X57.735 Y24.997 E935.13845
G1 X56.85 Y24.997 E935.21902
G1 X169.923 Y138.07 E949.77719
G1 X169.923 Y138.954 E949.85767
G1 X55.966 Y24.997 E964.52965
G1 X55.081 Y24.997 E964.61022
G1 X169.923 Y139.839 E979.39615
G1 X169.923 Y140.724 E979.47672
