; generated by PrusaSlicer 2.9.2 on 2025-10-26 at 04:46:37 UTC

; 

; external perimeters extrusion width = 0.45mm
; perimeters extrusion width = 0.45mm
; infill extrusion width = 0.45mm
; solid infill extrusion width = 0.45mm
; top infill extrusion width = 0.40mm
; first layer extrusion width = 0.70mm

M104 S200 ; set temperature
;TYPE:Custom
G28 ; home all axes
G1 Z5 F5000 ; lift nozzle
M109 S200 ; set temperature and wait for it to be reached
G21 ; set units to millimeters
G90 ; use absolute coordinates
M82 ; use absolute distances for extrusion
G92 E0
; Filament gcode
M107
;LAYER_CHANGE
;Z:0.35
;HEIGHT:0.35
G1 E-2 F2400
G92 E0
G1 Z.35 F7800
G1 X28.226 Y34.488
G1 E2 F2400
;TYPE:Skirt/Brim
;WIDTH:0.7
G1 F1200
G1 X29.91 Y33.397 E2.18245
G1 X31.763 Y33.042 E2.35401
G1 X168.237 Y33.042 E14.76353
G1 X170.204 Y33.444 E14.94609
G1 X171.862 Y34.576 E15.12864
G1 X172.953 Y36.261 E15.31117
G1 X173.308 Y38.113 E15.48264
G1 X173.31 Y161.925 E26.74081
G1 X172.914 Y163.893 E26.92335
G1 X171.787 Y165.554 E27.10587
G1 X170.106 Y166.65 E27.28834
G1 X168.233 Y167.011 E27.46179
G1 X34.286 Y167.016 E39.64153
G1 X31.767 Y167.011 E39.87058
G1 X29.8 Y166.611 E40.0531
G1 X28.141 Y165.482 E40.23557
G1 X27.048 Y163.798 E40.41812
G1 X26.69 Y161.925 E40.59151
G1 X26.685 Y40.223 E51.65782
G1 X26.692 Y38.113 E51.84968
G1 X27.094 Y36.146 E52.03224
G1 X28.192 Y34.538 E52.20929
G1 X28.721 Y34.931 F7800
G1 F1200
G1 X28.839 Y34.772 E52.22729
G1 X30.481 Y33.859 E52.39812
G1 X31.765 Y33.667 E52.51617
G1 X168.235 Y33.667 E64.92533
G1 X170.071 Y34.068 E65.09621
G1 X171.578 Y35.189 E65.267
G1 X172.491 Y36.831 E65.43783
G1 X172.683 Y38.115 E65.55588
G1 X172.685 Y161.925 E76.81387
G1 X172.289 Y163.761 E76.98466
G1 X171.173 Y165.272 E77.15547
G1 X169.533 Y166.19 E77.32637
G1 X168.232 Y166.386 E77.446
G1 X31.768 Y166.386 E89.85461
G1 X29.932 Y165.987 E90.02545
G1 X28.424 Y164.868 E90.1962
G1 X27.509 Y163.227 E90.36704
G1 X27.315 Y161.925 E90.48674
G1 X27.317 Y38.115 E101.74473
G1 X27.718 Y36.279 E101.91561
G1 X28.685 Y34.979 E102.06294
G1 X29.189 Y35.395 F7800
G1 F1200
G1 X29.449 Y35.08 E102.10008
G1 X31.767 Y34.292 E102.3227
G1 X168.233 Y34.292 E114.7315
G1 X169.927 Y34.692 E114.88977
G1 X171.27 Y35.799 E115.04803
G1 X172.058 Y38.117 E115.27065
G1 X172.06 Y161.925 E126.52846
G1 X171.665 Y163.62 E126.68672
G1 X170.562 Y164.966 E126.84496
G1 X168.231 Y165.761 E127.06891
G1 X31.769 Y165.761 E139.47734
G1 X30.075 Y165.363 E139.63557
G1 X28.731 Y164.258 E139.79378
G1 X27.94 Y161.925 E140.01778
G1 X27.942 Y38.117 E151.27559
G1 X28.342 Y36.423 E151.43386
G1 X29.151 Y35.441 E151.54955
G1 X29.62 Y35.881 F7800
G1 F1200
G1 X30.053 Y35.419 E151.60713
G1 X31.768 Y34.916 E151.76964
G1 X168.232 Y34.916 E164.17825
G1 X169.771 Y35.315 E164.32282
G1 X170.931 Y36.403 E164.46743
G1 X171.434 Y38.119 E164.63003
G1 X171.435 Y161.925 E175.88766
G1 X171.041 Y163.466 E176.03229
G1 X169.957 Y164.629 E176.17685
G1 X168.229 Y165.137 E176.34063
G1 X31.771 Y165.137 E188.7487
G1 X30.23 Y164.74 E188.8934
G1 X29.069 Y163.653 E189.03802
G1 X28.565 Y161.925 E189.20169
G1 X28.566 Y38.119 E200.45932
G1 X28.965 Y36.579 E200.60398
G1 X29.579 Y35.925 E200.68555
G1 X29.994 Y36.388 F7800
G1 F1200
G1 X30.649 Y35.801 E200.76553
G1 X31.77 Y35.541 E200.87017
G1 X168.23 Y35.541 E213.27842
G1 X169.598 Y35.938 E213.40794
G1 X170.549 Y36.999 E213.5375
G1 X170.809 Y38.121 E213.64223
G1 X170.81 Y161.925 E224.89968
G1 X170.418 Y163.294 E225.02917
G1 X169.36 Y164.248 E225.15871
G1 X168.228 Y164.512 E225.2644
G1 X31.772 Y164.512 E237.67229
G1 X30.403 Y164.117 E237.80185
G1 X29.451 Y163.057 E237.9314
G1 X29.19 Y161.925 E238.03703
G1 X29.191 Y38.121 E249.29448
G1 X29.588 Y36.752 E249.42409
G1 X29.949 Y36.428 E249.4682
G1 X30.21 Y36.95 F7800
G1 F1200
G1 X31.772 Y36.166 E249.62712
G1 X168.228 Y36.166 E262.03501
G1 X169.4 Y36.56 E262.14744
G1 X170.184 Y38.122 E262.30636
G1 X170.185 Y161.925 E273.56371
G1 X169.796 Y163.098 E273.67608
G1 X168.227 Y163.887 E273.83577
G1 X31.773 Y163.887 E286.24347
G1 X30.6 Y163.495 E286.35593
G1 X29.815 Y161.925 E286.51554
G1 X29.816 Y38.122 E297.77289
G1 X30.191 Y37.007 E297.87986
G1 X30.799 Y37.259 F7800
G1 F1200
G1 X30.829 Y37.187 E297.88695
G1 X31.774 Y36.791 E297.98012
G1 X33.844 Y36.785 E298.16835
G1 X168.226 Y36.791 E310.38765
G1 X169.163 Y37.179 E310.47987
G1 X169.559 Y38.124 E310.57304
G1 X169.561 Y161.925 E321.83021
G1 X169.175 Y162.863 E321.92244
G1 X168.226 Y163.262 E322.01605
G1 X165.714 Y163.267 E322.24447
G1 X31.774 Y163.262 E334.42358
G1 X30.836 Y162.875 E334.51585
G1 X30.439 Y161.925 E334.60947
G1 X30.441 Y38.124 E345.86664
G1 X30.776 Y37.314 E345.94634
G1 X31.327 Y37.865 F7800
G1 F1200
G1 X31.776 Y37.416 E346.00408
G1 X168.224 Y37.416 E358.41124
G1 X168.934 Y38.126 E358.50254
G1 X168.936 Y161.925 E369.75953
G1 X168.225 Y162.637 E369.85102
G1 X31.775 Y162.637 E382.25836
G1 X31.064 Y161.925 E382.34985
G1 X31.066 Y38.126 E393.60684
G1 X31.285 Y37.907 E393.635
G1 E391.635 F2400
G92 E0
G92 E0
G1 X166.622 Y39.728 F7800
G1 E2 F2400
;TYPE:Perimeter
;WIDTH:0.7
G1 F1200
G1 X166.623 Y100.018 E7.48214
G1 X166.623 Y160.324 E12.96574
G1 X41.835 Y160.292 E24.31265
G1 X33.377 Y160.328 E25.08174
G1 X33.378 Y39.728 E36.04784
G1 X166.562 Y39.728 E48.1582
G1 X167.247 Y39.103 F7800
G1 F1200
G1 X167.247 Y100.018 E53.69717
G1 X167.248 Y160.949 E59.2376
G1 X41.835 Y160.917 E70.64134
G1 X32.752 Y160.952 E71.46726
G1 X32.753 Y39.103 E82.54693
G1 X167.187 Y39.103 E94.77095
G1 X167.872 Y38.478 F7800
;TYPE:External perimeter
G1 F1200
G1 X167.872 Y100.018 E100.36675
G1 X167.873 Y161.575 E105.9641
G1 X41.834 Y161.542 E117.42477
G1 X32.127 Y161.575 E118.30743
G1 X32.128 Y38.478 E129.50058
G1 X167.812 Y38.478 E141.83826
G1 X167.871 Y38.874 F7800
G1 E139.83826 F2400
G92 E0
G1 X165.169 Y39.916 F7800
G1 E2 F2400
;TYPE:Solid infill
;WIDTH:0.701175
G1 F1200
G1 X166.153 Y40.9 E2.12677
G1 X166.153 Y41.785 E2.20739
G1 X164.565 Y40.197 E2.41198
G1 X163.679 Y40.197 E2.4927
G1 X166.153 Y42.671 E2.81144
G1 X166.153 Y43.556 E2.89206
G1 X162.794 Y40.197 E3.32482
G1 X161.908 Y40.197 E3.40554
G1 X166.153 Y44.442 E3.95245
G1 X166.153 Y45.327 E4.03307
G1 X161.023 Y40.197 E4.694
G1 X160.138 Y40.197 E4.77462
G1 X166.153 Y46.212 E5.54957
G1 X166.153 Y47.098 E5.63029
G1 X159.252 Y40.197 E6.51938
G1 X158.367 Y40.197 E6.6
G1 X166.153 Y47.983 E7.60311
G1 X166.153 Y48.869 E7.68383
G1 X157.481 Y40.197 E8.80109
G1 X156.596 Y40.197 E8.88171
G1 X166.153 Y49.754 E10.11299
G1 X166.153 Y50.639 E10.19361
G1 X155.711 Y40.197 E11.53891
G1 X154.825 Y40.197 E11.61963
G1 X166.153 Y51.525 E13.07908
G1 X166.153 Y52.41 E13.1597
G1 X153.94 Y40.197 E14.73317
G1 X153.055 Y40.197 E14.81379
G1 X166.153 Y53.296 E16.50134
G1 X166.153 Y54.181 E16.58196
G1 X152.169 Y40.197 E18.3836
G1 X151.284 Y40.197 E18.46422
G1 X166.153 Y55.066 E20.37988
G1 X166.153 Y55.952 E20.4606
G1 X150.398 Y40.197 E22.4904
G1 X149.513 Y40.197 E22.57102
G1 X166.153 Y56.837 E24.71484
G1 X166.153 Y57.723 E24.79556
G1 X148.628 Y40.197 E27.05347
G1 X147.742 Y40.197 E27.13419
G1 X166.153 Y58.608 E29.50618
G1 X166.153 Y59.493 E29.5868
G1 X146.857 Y40.197 E32.07281
G1 X145.971 Y40.197 E32.15353
G1 X166.153 Y60.379 E34.75369
G1 X166.153 Y61.264 E34.83431
G1 X145.086 Y40.197 E37.54849
G1 X144.201 Y40.197 E37.62911
G1 X166.153 Y62.15 E40.45737
G1 X166.153 Y63.035 E40.53799
G1 X143.315 Y40.197 E43.48034
G1 X142.43 Y40.197 E43.56096
G1 X166.154 Y63.92 E46.61739
G1 X166.154 Y64.806 E46.69811
G1 X141.544 Y40.197 E49.86869
G1 X140.659 Y40.197 E49.94931
G1 X166.154 Y65.691 E53.23391
G1 X166.154 Y66.577 E53.31463
G1 X139.774 Y40.197 E56.71331
G1 X138.888 Y40.197 E56.79403
G1 X166.154 Y67.462 E60.3068
G1 X166.154 Y68.347 E60.38742
G1 X138.003 Y40.197 E64.01421
G1 X137.118 Y40.197 E64.09483
G1 X166.154 Y69.233 E67.8357
G1 X166.154 Y70.118 E67.91632
G1 X136.232 Y40.197 E71.77127
G1 X135.347 Y40.197 E71.85189
G1 X166.154 Y71.004 E75.82093
G1 X166.154 Y71.889 E75.90155
G1 X134.461 Y40.197 E79.98467
G1 X133.576 Y40.197 E80.06529
G1 X166.154 Y72.774 E84.26243
G1 X166.154 Y73.66 E84.34315
G1 X132.691 Y40.197 E88.65437
G1 X131.805 Y40.197 E88.73509
G1 X166.154 Y74.545 E93.1604
G1 X166.154 Y75.431 E93.24112
G1 X130.92 Y40.197 E97.78051
G1 X130.034 Y40.197 E97.86123
G1 X166.154 Y76.316 E102.51471
G1 X166.154 Y77.201 E102.59533
G1 X129.149 Y40.197 E107.36283
G1 X128.264 Y40.197 E107.44345
G1 X166.154 Y78.087 E112.32503
G1 X166.154 Y78.972 E112.40565
G1 X127.378 Y40.197 E117.40131
G1 X126.493 Y40.197 E117.48193
G1 X166.154 Y79.858 E122.59168
G1 X166.154 Y80.743 E122.6723
G1 X125.607 Y40.197 E127.89613
G1 X124.722 Y40.197 E127.97675
G1 X166.154 Y81.628 E133.3146
G1 X166.154 Y82.514 E133.39532
G1 X123.837 Y40.197 E138.84725
G1 X122.951 Y40.197 E138.92797
G1 X166.154 Y83.399 E144.49399
G1 X166.154 Y84.285 E144.57471
G1 X122.066 Y40.197 E150.25481
G1 X121.181 Y40.197 E150.33543
G1 X166.154 Y85.17 E156.12955
G1 X166.154 Y86.055 E156.21017
G1 X120.295 Y40.197 E162.11838
G1 X119.41 Y40.197 E162.199
G1 X166.154 Y86.941 E168.22129
G1 X166.154 Y87.826 E168.30191
G1 X118.524 Y40.197 E174.43828
G1 X117.639 Y40.197 E174.5189
G1 X166.154 Y88.712 E180.76936
G1 X166.154 Y89.597 E180.84998
G1 X116.754 Y40.197 E187.21446
G1 X115.868 Y40.197 E187.29518
G1 X166.154 Y90.482 E193.77374
G1 X166.154 Y91.368 E193.85446
G1 X114.983 Y40.197 E200.4471
G1 X114.097 Y40.197 E200.52782
G1 X166.154 Y92.253 E207.23455
G1 X166.154 Y93.139 E207.31527
G1 X113.212 Y40.197 E214.13608
G1 X112.327 Y40.197 E214.2167
G1 X166.154 Y94.024 E221.15153
G1 X166.154 Y94.909 E221.23215
G1 X111.441 Y40.197 E228.28107
G1 X110.556 Y40.197 E228.36169
G1 X166.154 Y95.795 E235.52469
G1 X166.154 Y96.68 E235.60531
G1 X109.671 Y40.197 E242.88233
G1 X108.785 Y40.197 E242.96305
G1 X166.154 Y97.566 E250.35422
G1 X166.154 Y98.451 E250.43484
G1 X107.9 Y40.197 E257.94003
G1 X107.014 Y40.197 E258.02075
G1 X166.154 Y99.336 E265.64002
G1 X166.154 Y100.222 E265.72074
G1 X106.129 Y40.197 E273.4541
G1 X105.244 Y40.197 E273.53472
G1 X166.154 Y101.107 E281.38209
G1 X166.154 Y101.993 E281.46281
G1 X104.358 Y40.197 E289.42433
G1 X103.473 Y40.197 E289.50495
G1 X166.154 Y102.878 E297.58049
G1 X166.154 Y103.763 E297.66111
G1 X102.587 Y40.197 E305.85074
G1 X101.702 Y40.197 E305.93136
G1 X166.154 Y104.649 E314.23507
G1 X166.154 Y105.534 E314.31569
G1 X100.817 Y40.197 E322.73342
G1 X99.931 Y40.197 E322.81414
G1 X166.154 Y106.42 E331.34602
G1 X166.154 Y107.305 E331.42664
G1 X99.046 Y40.197 E340.07254
G1 X98.16 Y40.197 E340.15326
G1 X166.154 Y108.19 E348.91324
G1 X166.154 Y109.076 E348.99396
G1 X97.275 Y40.197 E357.86803
G1 X96.39 Y40.197 E357.94865
G1 X166.154 Y109.961 E366.93673
G1 X166.154 Y110.847 E367.01745
G1 X95.504 Y40.197 E376.11968
G1 X94.619 Y40.197 E376.2003
G1 X166.154 Y111.732 E385.41655
G1 X166.154 Y112.617 E385.49717
G1 X93.734 Y40.197 E394.82744
G1 X92.848 Y40.197 E394.90816
G1 X166.154 Y113.503 E404.35258
G1 X166.154 Y114.388 E404.4332
G1 X91.963 Y40.197 E413.99164
G1 X91.077 Y40.197 E414.07236
G1 X166.154 Y115.274 E423.74495
G1 X166.154 Y116.159 E423.82557
G1 X90.192 Y40.197 E433.61218
G1 X89.307 Y40.197 E433.6928
G1 X166.154 Y117.044 E443.59343
G1 X166.154 Y117.93 E443.67415
G1 X88.421 Y40.197 E453.68893
G1 X87.536 Y40.197 E453.76955
G1 X166.154 Y118.815 E463.89834
G1 X166.154 Y119.701 E463.97906
G1 X86.65 Y40.197 E474.222
G1 X85.765 Y40.197 E474.30262
G1 X166.154 Y120.586 E484.65958
G1 X166.154 Y121.471 E484.7402
G1 X84.88 Y40.197 E495.21118
G1 X83.994 Y40.197 E495.2919
G1 X166.154 Y122.357 E505.87703
G1 X166.154 Y123.242 E505.95765
G1 X83.109 Y40.197 E516.6568
G1 X82.223 Y40.197 E516.73752
G1 X166.154 Y124.128 E527.55082
G1 X166.154 Y125.013 E527.63144
G1 X81.338 Y40.197 E538.55876
G1 X80.453 Y40.197 E538.63938
G1 X166.154 Y125.898 E549.68072
G1 X166.154 Y126.784 E549.76144
G1 X79.567 Y40.197 E560.91693
G1 X78.682 Y40.197 E560.99755
G1 X166.154 Y127.669 E572.26706
G1 X166.154 Y128.554 E572.34768
G1 X77.797 Y40.197 E583.7312
G1 X76.911 Y40.197 E583.81192
G1 X166.154 Y129.44 E595.30959
G1 X166.154 Y130.325 E595.39021
G1 X76.026 Y40.197 E607.0019
G1 X75.14 Y40.197 E607.08262
G1 X166.154 Y131.211 E618.80846
G1 X166.154 Y132.096 E618.88908
G1 X74.255 Y40.197 E630.72894
G1 X73.37 Y40.197 E630.80956
G1 X166.154 Y132.981 E642.76344
G1 X166.154 Y133.867 E642.84416
G1 X72.484 Y40.197 E654.91219
G1 X71.599 Y40.197 E654.99281
G1 X166.154 Y134.752 E667.17486
G1 X166.154 Y135.638 E667.25558
G1 X70.713 Y40.197 E679.55178
G1 X69.828 Y40.197 E679.6324
G1 X166.154 Y136.523 E692.04262
G1 X166.154 Y137.408 E692.12324
G1 X68.943 Y40.197 E704.64747
G1 X68.057 Y40.197 E704.72819
G1 X166.154 Y138.294 E717.36657
G1 X166.154 Y139.179 E717.44719
G1 X67.172 Y40.197 E730.19959
G1 X66.286 Y40.197 E730.28031
G1 X166.154 Y140.065 E743.14686
G1 X166.154 Y140.95 E743.22748
G1 X65.401 Y40.197 E756.20805
G1 X64.516 Y40.197 E756.28867
G1 X166.154 Y141.835 E769.38326
G1 X166.154 Y142.721 E769.46398
G1 X63.63 Y40.197 E782.67272
G1 X62.745 Y40.197 E782.75334
G1 X166.154 Y143.606 E796.0761
G1 X166.154 Y144.492 E796.15682
G1 X61.86 Y40.197 E809.59366
G1 X60.974 Y40.197 E809.67438
G1 X166.154 Y145.377 E823.22531
G1 X166.154 Y146.262 E823.30593
G1 X60.089 Y40.197 E836.97087
G1 X59.203 Y40.197 E837.05159
G1 X166.154 Y147.148 E850.83068
G1 X166.154 Y148.033 E850.9113
G1 X58.318 Y40.197 E864.80441
G1 X57.433 Y40.197 E864.88503
G1 X166.154 Y148.919 E878.89223
G1 X166.154 Y149.804 E878.97285
G1 X56.547 Y40.197 E893.09413
G1 X55.662 Y40.197 E893.17475
G1 X166.154 Y150.689 E907.41005
G1 X166.155 Y151.575 E907.49077
G1 X54.776 Y40.197 E921.84028
G1 X53.891 Y40.197 E921.9209
G1 X166.155 Y152.46 E936.38443
G1 X166.155 Y153.346 E936.46515
G1 X53.006 Y40.197 E951.04277
G1 X52.12 Y40.197 E951.12349
G1 X166.155 Y154.231 E965.81519
G1 X166.155 Y155.116 E965.89581
G1 X51.235 Y40.197 E980.70153
G1 X50.349 Y40.197 E980.78225
G1 X166.155 Y156.002 E995.70212
G1 X166.155 Y156.887 E995.78274
G1 X49.464 Y40.197 E1010.81663
G1 X48.579 Y40.197 E1010.89725
G1 X166.155 Y157.773 E1026.04522
G1 X166.155 Y158.658 E1026.12584
G1 X47.693 Y40.197 E1041.38789
G1 X46.808 Y40.197 E1041.46851
G1 X166.155 Y159.543 E1056.84458
G1 X166.155 Y159.856 E1056.87309
G1 X165.581 Y159.855 E1056.92538
G1 X45.923 Y40.197 E1072.34159
G1 X45.037 Y40.197 E1072.42231
G1 X164.696 Y159.855 E1087.83858
G1 X163.81 Y159.855 E1087.9193
G1 X44.152 Y40.197 E1103.33551
G1 X43.266 Y40.197 E1103.41623
G1 X162.924 Y159.855 E1118.83244
G1 X162.039 Y159.855 E1118.91306
G1 X42.381 Y40.197 E1134.32927
G1 X41.496 Y40.197 E1134.40989
G1 X161.153 Y159.854 E1149.82597
G1 X160.268 Y159.854 E1149.90659
G1 X40.61 Y40.197 E1165.32273
G1 X39.725 Y40.197 E1165.40335
G1 X159.382 Y159.854 E1180.81943
G1 X158.496 Y159.854 E1180.90015
G1 X38.839 Y40.197 E1196.31623
G1 X37.954 Y40.197 E1196.39685
G1 X157.611 Y159.853 E1211.81286
G1 X156.725 Y159.853 E1211.89358
G1 X37.069 Y40.197 E1227.30953
G1 X36.183 Y40.197 E1227.39025
G1 X155.839 Y159.853 E1242.8062
G1 X154.954 Y159.853 E1242.88682
G1 X35.298 Y40.197 E1258.30277
G1 X34.413 Y40.197 E1258.38339
G1 X154.068 Y159.853 E1273.79927
G1 X153.183 Y159.852 E1273.87989
G1 X33.847 Y40.516 E1289.25461
G1 X33.847 Y41.402 E1289.33533
G1 X152.297 Y159.852 E1304.5959
G1 X151.411 Y159.852 E1304.67662
G1 X33.847 Y42.287 E1319.82311
G1 X33.847 Y43.173 E1319.90383
G1 X150.526 Y159.852 E1334.93624
G1 X149.64 Y159.851 E1335.01696
G1 X33.847 Y44.058 E1349.93522
G1 X33.847 Y44.943 E1350.01584
G1 X148.755 Y159.851 E1364.82008
G1 X147.869 Y159.851 E1364.9008
G1 X33.847 Y45.829 E1379.59089
G1 X33.847 Y46.714 E1379.67151
G1 X146.983 Y159.851 E1394.24752
G1 X146.098 Y159.85 E1394.32814
G1 X33.847 Y47.599 E1408.79006
G1 X33.847 Y48.485 E1408.87078
G1 X145.212 Y159.85 E1423.21855
G1 X144.326 Y159.85 E1423.29927
G1 X33.847 Y49.37 E1437.53296
G1 X33.847 Y50.256 E1437.61368
G1 X143.441 Y159.85 E1451.73329
G1 X142.555 Y159.85 E1451.81401
G1 X33.847 Y51.141 E1465.81953
G1 X33.847 Y52.026 E1465.90015
G1 X141.67 Y159.849 E1479.79159
G1 X140.784 Y159.849 E1479.87231
G1 X33.847 Y52.912 E1493.6496
G1 X33.847 Y53.797 E1493.73022
G1 X139.898 Y159.849 E1507.39343
G1 X139.013 Y159.849 E1507.47405
G1 X33.847 Y54.682 E1521.02324
G1 X33.847 Y55.568 E1521.10396
